app/img/city.svg

<svg width="16" height="17" viewBox="0 0 16 17" fill="none" xmlns="http://www.w3.org/2000/svg">
<path fill-rule="evenodd" clip-rule="evenodd" d="M8.00065 5.66732C7.26427 5.66732 6.66732 6.26427 6.66732 7.00065C6.66732 7.73703 7.26427 8.33398 8.00065 8.33398C8.73703 8.33398 9.33398 7.73703 9.33398 7.00065C9.33398 6.26427 8.73703 5.66732 8.00065 5.66732ZM5.33398 7.00065C5.33398 5.52789 6.52789 4.33398 8.00065 4.33398C9.47341 4.33398 10.6673 5.52789 10.6673 7.00065C10.6673 8.47341 9.47341 9.66732 8.00065 9.66732C6.52789 9.66732 5.33398 8.47341 5.33398 7.00065Z" fill="#787A80"/>
<path fill-rule="evenodd" clip-rule="evenodd" d="M8.00065 2.66732C5.58762 2.66732 3.66732 4.55802 3.66732 6.84681C3.66732 8.71268 4.78866 10.5972 6.01441 12.0795C6.61615 12.8071 7.2196 13.4099 7.67296 13.8307C7.79424 13.9433 7.90446 14.0426 8.00065 14.1274C8.09684 14.0426 8.20706 13.9433 8.32834 13.8307C8.78171 13.4099 9.38515 12.8071 9.98689 12.0795C11.2126 10.5972 12.334 8.71268 12.334 6.84681C12.334 4.55802 10.4137 2.66732 8.00065 2.66732ZM8.00065 15.0007C7.5881 15.5243 7.58795 15.5242 7.58778 15.5241L7.58612 15.5228L7.58232 15.5198L7.56941 15.5095C7.55846 15.5007 7.54291 15.4881 7.52305 15.4719C7.48334 15.4395 7.42638 15.3925 7.35463 15.3316C7.2112 15.21 7.00834 15.033 6.76584 14.8079C6.28171 14.3585 5.63515 13.7131 4.98689 12.9292C3.71264 11.3883 2.33398 9.19585 2.33398 6.84681C2.33398 3.78267 4.89083 1.33398 8.00065 1.33398C11.1105 1.33398 13.6673 3.78267 13.6673 6.84681C13.6673 9.19585 12.2887 11.3883 11.0144 12.9292C10.3661 13.7131 9.7196 14.3585 9.23546 14.8079C8.99296 15.033 8.7901 15.21 8.64667 15.3316C8.57492 15.3925 8.51796 15.4395 8.47825 15.4719C8.45839 15.4881 8.44284 15.5007 8.4319 15.5095L8.41898 15.5198L8.41518 15.5228L8.41396 15.5237C8.41379 15.5239 8.4132 15.5243 8.00065 15.0007ZM8.00065 15.0007L8.4132 15.5243C8.17121 15.715 7.82977 15.7147 7.58778 15.5241L8.00065 15.0007Z" fill="#787A80"/>
</svg>

<svg width="16" height="17" fill="none" xmlns="http://www.w3.org/2000/svg"><path fill-rule="evenodd" clip-rule="evenodd" d="M8 5.667a1.333 1.333 0 100 2.667 1.333 1.333 0 000-2.667zM5.335 7.001a2.667 2.667 0 115.333 0 2.667 2.667 0 01-5.333 0z" fill="#787A80"/><path fill-rule="evenodd" clip-rule="evenodd" d="M8 2.667c-2.412 0-4.333 1.891-4.333 4.18 0 1.866 1.122 3.75 2.347 5.232a18.612 18.612 0 001.987 2.048 18.61 18.61 0 001.986-2.048c1.226-1.482 2.347-3.366 2.347-5.232 0-2.289-1.92-4.18-4.333-4.18zm0 12.334l-.412.523-.002-.001-.004-.003-.013-.01a8.622 8.622 0 01-.214-.178 19.944 19.944 0 01-2.368-2.402c-1.274-1.542-2.653-3.734-2.653-6.083 0-3.064 2.557-5.513 5.667-5.513s5.666 2.449 5.666 5.513c0 2.349-1.378 4.541-2.653 6.082a19.948 19.948 0 01-2.367 2.403 11.273 11.273 0 01-.215.177l-.013.01-.004.004h-.001l-.413-.522zm0 0l.413.523a.667.667 0 01-.825 0L8 15.001z" fill="#787A80"/></svg>
